svg/fluentui-system-icons/ic_fluent_save_copy_24_filled.svg

<svg width="24" height="24" viewBox="0 0 24 24" fill="none" xmlns="http://www.w3.org/2000/svg">
<path d="M20.4962 5.62668C21.3721 5.93448 22 6.76891 22 7.75V17.75C22 20.0972 20.0972 22 17.75 22H7.75C6.76891 22 5.93448 21.3721 5.62668 20.4962L7.72396 20.4996L17.75 20.5C19.2688 20.5 20.5 19.2688 20.5 17.75V7.75L20.496 7.69902L20.4962 5.62668ZM17.2468 2C18.4895 2 19.4968 3.00736 19.4968 4.25V17.2468C19.4968 18.4895 18.4895 19.4968 17.2468 19.4968H4.25C3.00736 19.4968 2 18.4895 2 17.2468V4.25C2 3.00736 3.00736 2 4.25 2H17.2468ZM10.75 6.75C10.3703 6.75 10.0565 7.03215 10.0068 7.39823L10 7.5V10H7.5C7.08579 10 6.75 10.3358 6.75 10.75C6.75 11.1297 7.03215 11.4435 7.39823 11.4932L7.5 11.5H10V14C10 14.4142 10.3358 14.75 10.75 14.75C11.1297 14.75 11.4435 14.4678 11.4932 14.1018L11.5 14V11.5H14C14.4142 11.5 14.75 11.1642 14.75 10.75C14.75 10.3703 14.4678 10.0565 14.1018 10.0068L14 10H11.5V7.5C11.5 7.08579 11.1642 6.75 10.75 6.75Z" fill="#212121"/>
</svg>

<svg xmlns="http://www.w3.org/2000/svg" width="24" height="24"><path d="M20.496 5.627A2.25 2.25 0 0 1 22 7.75v10A4.25 4.25 0 0 1 17.75 22h-10a2.25 2.25 0 0 1-2.123-1.504l2.097.004H17.75a2.75 2.75 0 0 0 2.75-2.75v-10l-.004-.051V5.627ZM17.246 2a2.25 2.25 0 0 1 2.25 2.25v12.997a2.25 2.25 0 0 1-2.25 2.25H4.25A2.25 2.25 0 0 1 2 17.247V4.25A2.25 2.25 0 0 1 4.25 2h12.997ZM10.75 6.75a.75.75 0 0 0-.743.648L10 7.5V10H7.5a.75.75 0 0 0-.102 1.493l.102.007H10V14a.75.75 0 0 0 1.493.102L11.5 14v-2.5H14a.75.75 0 0 0 .102-1.493L14 10h-2.5V7.5a.75.75 0 0 0-.75-.75Z"/></svg>
